**kern	**text	**kern	**text	**kern	**text	**kern	**text	**kern	**text	**cdata-harm
*staff5	*staff5	*staff4	*staff4	*staff3	*staff3	*staff2	*staff2	*staff1	*staff1	*
=1-	=1-	=1-	=1-	=1-	=1-	=1-	=1-	=1-	=1-	=1-
*clefF4	*	*clefGv2	*	*clefGv2	*	*clefGv2	*	*clefG2	*	*
*k[b-]	*	*k[b-]	*	*k[b-]	*	*k[b-]	*	*k[b-]	*	*
*M4/4	*	*M4/4	*	*M4/4	*	*M4/4	*	*M4/4	*	*
1r	.	[1G/	Lau-	2r	.	2r	.	2r	.	<HOM_4v
.	.	.	.	[2B-\	Lau-	[2d\	Lau-	[2g/	Lau-	.
=2	=2	=2	=2	=2	=2	=2	=2	=2	=2	.
1r	.	2G/]	.	2B-\]	.	2d\]	.	2g/]	.	.
.	.	2F#/	rohoi-	2A/	rohoi-	2d\	rohoi-	2a/	rohoi-	.
=3	=3	=3	=3	=3	=3	=3	=3	=3	=3	.
1r	.	1G/	me	1Bn\	me	1d\	me	2g/	me	.
.	.	.	.	.	.	.	.	[2g/	lau-	.
=4	=4	=4	=4	=4	=4	=4	=4	=4	=4	.
1r	.	4C/	lau-	4c\	lau-	4e-\	lau-	4g/]	.	.
.	.	4D/	roin-	4A/	roin-	4d\	roin-	4f/	roin-	.
.	.	2A/	gran-	2A/	gra-	2c#\	gra-	2e/	gra-	.
=5	=5	=5	=5	=5	=5	=5	=5	=5	=5	.
4r	.	2D/	to	4A/	to	4d\	to	4f#/	to	>
4D\	Al-	.	.	4d\	Al-	4f#\	Al-	4a/	Al-	<HOM_4v+CON_1v
4.GG/	cun	4r	.	4.d\	cun	4.g\	cun	4.b-\	cun	.
.	.	4G/	Al-	.	.	.	.	.	.	.
8GG/	de	.	.	8d\	de	8g\	de	8b-\	de	.
=6	=6	=6	=6	=6	=6	=6	=6	=6	=6	.
4GG/	pre-	4.G/	cun	4d\	pre-	4g\	pre-	4b-\	pre-	.
4GG/	gi	.	.	4d\	gi	4g\	gi	4g/	gi	.
.	.	8B-\	de	.	.	.	.	.	.	.
2D\	tuoi	4A/	pre-	2d\	tuoi	2f#\	tuoi	2a/	tuoi	.
.	.	4A/	gi	.	.	.	.	.	.	.
=7	=7	=7	=7	=7	=7	=7	=7	=7	=7	.
4r	.	4G/	tuoi	2r	.	4r	.	4r	.	>
4G\	Al-	4G/	Al-	.	.	4g\	Al-	4b-\	Al-	<HOM_4v+CON_1v
4.D\	cun-	4.A/	cun-	4r	.	4.f#\	cun	4.a/	cun	.
.	.	.	.	4A/	Al-	.	.	.	.	.
8D\	de	8A/	de	.	.	8f#\	de	8a/	de	.
=8	=8	=8	=8	=8	=8	=8	=8	=8	=8	.
4D\	pre-	4A/	pre-	4.d\	cun	4f\	pre-	4a/	pre-	.
4GG/	gi	4G/	gi	.	.	4g\	gi	4b-\	gi	.
.	.	.	.	8d\	de	.	.	.	.	.
2D\	tuoi	2A/	tuoi	4d\	pre-	2f\	tuoi	2a/	tuoi	.
.	.	.	.	4d\	gi	.	.	.	.	.
=9	=9	=9	=9	=9	=9	=9	=9	=9	=9	.
2BB-/	non	2D/	non	2d\	tuoi	2f\	non	2b-\	non	.
4C/	hai	4E/	hai	2c\	non	4e\	hai	4a/	hai	.
4C/	smar-	4G/	smar-	.	.	4e\	smar-	4g/	smar-	.
=10	=10	=10	=10	=10	=10	=10	=10	=10	=10	.
1D\	ri-	1D/	ri-	4A/	hai	1d\	ri-	4f#/	ri-	.
.	.	.	.	4B-\	smar-	.	.	2g/	.	.
.	.	.	.	2A/	ri-	.	.	.	.	.
.	.	.	.	.	.	.	.	4f#/	.	.
=11	=11	=11	=11	=11	=11	=11	=11	=11	=11	.
1GG/	to	2D/	to	2Bn\	to	1d\	to	2g/	to	>
.	.	[2G/	Pi&ugrave;	[2B\	Pi&ugrave;	.	.	[2b-\	Pi&ugrave;	<HOM_4v
=12	=12	=12	=12	=12	=12	=12	=12	=12	=12	.
1r	.	2G/]	.	2B\]	.	2d\	Pi&ugrave;	2b-\]	.	.
.	.	2F/	che	2c\	che	2f\	che	2a/	che	.
=13	=13	=13	=13	=13	=13	=13	=13	=13	=13	.
1r	.	2B-\	mai	2d\	mai	2f\	mai	2b-\	mai	.
.	.	4F/	o-	4f\	o-	4a\	o-	4cc\	o-	.
.	.	4G/	do-	4d\	do-	4g\	do-	4b-\	do-	.
=14	=14	=14	=14	=14	=14	=14	=14	=14	=14	.
1r	.	2C/	ra-	2e-\	ra-	2g\	ra-	2cc\	ra-	.
.	.	2D/	to	4d\	to	2f#\	to	2a/	to	>
.	.	.	.	[4d\	Pi&ugrave;	.	.	.	.	<HOM_4v
=15	=15	=15	=15	=15	=15	=15	=15	=15	=15	.
4G\	Pi&ugrave;	1r	.	4d\]	.	4g\	Pi&ugrave;	4b-\	Pi&ugrave;	.
4D\	che	.	.	4d\	che	4f\	che	4a/	che	.
2BB-/	mai	.	.	2d\	mai	2f\	mai	2b-\	mai	.
=16	=16	=16	=16	=16	=16	=16	=16	=16	=16	.
4F\	co-	1r	.	4c\	co-	4f\	co-	4a/	co-	.
4G\	lo-	.	.	4Bn\	lo-	4d\	lo-	4g/	lo-	.
2C/	ri-	.	.	2c\	ri-	2e-\	ri-	2g/	ri-	.
=17	=17	=17	=17	=17	=17	=17	=17	=17	=17	.
2D\	to.	4r	.	2A/	to.	4d\	to.	4f#/	to.	>
.	.	4d\	E	.	.	4f#\	E	4a/	E	<CON_2v_trip+doub
4r	.	4d\	pur	4r	.	4f#\	pur	4a/	pur	.
4G\	E	4d\	non	4B-\	E	4g\	non	4b-\	non	.
=18	=18	=18	=18	=18	=18	=18	=18	=18	=18	.
4A\	pur	4c\	sei	4c\	pur	4e\	sei	4a/	sei	.
4G\	non	4B-\	quel	4d\	non	4g\	quel	4b-\	quel	.
4F\	sei	4.A/	lau-	4f\	sei	[2a\	lau-	2cc\	lau-	.
4E\	quel	.	.	4c\	quel	.	.	.	.	.
.	.	8G/	.	.	.	.	.	.	.	.
=19	=19	=19	=19	=19	=19	=19	=19	=19	=19	.
1D\	lau-	4F#/	.	4A/	lau-	4a\]	.	1dd\	ro	.
.	.	2G/	.	4B-\	.	4g\	.	.	.	.
.	.	.	.	2A/	.	2a\	.	.	.	.
.	.	4F#/	.	.	.	.	.	.	.	.
=20	=20	=20	=20	=20	=20	=20	=20	=20	=20	.
1G\	ro	1G/	ro	2B-\	ro	1g\	ro	2r	.	>
.	.	.	.	2d\	Ch'e-	.	.	2b-\	Ch'e-	<CON_3v_trip+doub+doub
=21	=21	=21	=21	=21	=21	=21	=21	=21	=21	.
2r	.	2r	.	4d\	ri	4r	.	4b-\	ri	.
.	.	.	.	4c\	gi&agrave;	4f\	Ch'e-	4a/	gi&agrave;	.
4r	.	4r	.	4B-\	del	4g\	ri	4b-\	del	.
4AA/	Ch'e-	4A/	Ch'e-	4A/	mio	4e\	gi&agrave;	4cc\	mio	.
=22	=22	=22	=22	=22	=22	=22	=22	=22	=22	.
4BB-/	ri	4d\	ri	[1D/	co-	4g\	del	[1dd\	co-	.
4AA/	gi&agrave;	4c\	gi&agrave;	.	.	4a\	mio	.	.	.
4BB-/	del	4B-\	del	.	.	[2f\	co-	.	.	.
4C/	mio	4B-\	mio	.	.	.	.	.	.	.
=23	=23	=23	=23	=23	=23	=23	=23	=23	=23	.
2D\	co-	2A/	co-	2D/]	.	2f\]	.	2dd\]	.	.
4AA/	re	4A/	re	4E/	re	4e\	re	4cc\	re	>
4D\	con	4A/	con	4D/	con	4f#\	con	4a/	con	<HOM_5v
=24	=24	=24	=24	=24	=24	=24	=24	=24	=24	.
4GG/	la	4G/	la	4d\	la	4g\	la	4bn\	la	.
4C/	fi-	4G/	fi-	4c\	fi-	4e\	fi-	4cc\	fi-	.
4FF/	d'om-	4F/	d'om-	4c\	d'om-	4f\	d'om-	4a/	d'om-	.
4F\	brae	4F/	brae	4c\	brae	4f\	brae	4a/	brae	.
=25	=25	=25	=25	=25	=25	=25	=25	=25	=25	.
4.BB-/	col	4.F/	col	4.d\	col	4.f\	col	4.b-\	col-	.
8BB-/	soa-	8F/	soa-	8d\	soa-	8f\	soa-	8b-\	soa-	.
4BB-/	ve	4D/	ve	4d\	ve	4f\	ve	4b-\	ve	.
4D\	o-	4F/	o-	4A/	o-	4d\	o-	4a/	o-	.
=26	=26	=26	=26	=26	=26	=26	=26	=26	=26	.
2AA/	do-	2E/	do-	2A/	do-	2c#\	do-	2a/	do-	.
2D\	de	2D/	re	2A/	re	2d\	re	2f#/	re	>
=27	=27	=27	=27	=27	=27	=27	=27	=27	=27	.
2AA/	Dol-	1r	.	2c\	Dol-	2r	.	1r	.	<CON_4v_doub
[2BB-/	cis-	.	.	[2d\	cis-	2f\	Dol-	.	.	.
=28	=28	=28	=28	=28	=28	=28	=28	=28	=28	.
2BB-/]	.	2r	.	2d\]	.	2f\	cis-	2b-\	Dol-	.
2GG/	si-	2D/	Dol-	2B-\	si-	2g\	si-	[2b-\	cis-	.
=29	=29	=29	=29	=29	=29	=29	=29	=29	=29	.
2FF/	mo	2.F/	cis-	2c\	mo	2c\	mo	2b-\]	.	.
2FF/	ris-	.	.	2c\	ris-	2f\	ris-	2a/	si-	.
.	.	4F/	si-	.	.	.	.	.	.	.
=30	=30	=30	=30	=30	=30	=30	=30	=30	=30	.
1C/	tau	4E/	mo	1c\	tau-	4g\	tau	4g/	mo	.
.	.	4F/	ris-	.	.	4a\	.	2f/	ris-	.
.	.	2G/	tau-	.	.	2g\	.	.	.	.
.	.	.	.	.	.	.	.	4e/	tau-	.
=31	=31	=31	=31	=31	=31	=31	=31	=31	=31	.
1FF/	ro.	1A/	ro.	1c\	ro.	1f\	ro.	2f/	ro.	>
.	.	.	.	.	.	.	.	2a/	O	<CON_3v
=32	=32	=32	=32	=32	=32	=32	=32	=32	=32	.
1r	.	4r	.	2c\	O	1r	.	4g/	pian-	.
.	.	4A/	O	.	.	.	.	4f/	ta	.
.	.	4G/	pian-	4B-\	pian-	.	.	4g/	in-	.
.	.	4F/	ta	4A/	ta	.	.	4cc\	si-	.
=33	=33	=33	=33	=33	=33	=33	=33	=33	=33	.
1r	.	4G/	in-	4d\	in-	1r	.	4b-\	dio-	.
.	.	4A/	si-	4c\	si-	.	.	4a/	.	.
.	.	4.B-\	dio-	[2d\	dio-	.	.	[2g/	.	.
.	.	8A/	.	.	.	.	.	.	.	.
=34	=34	=34	=34	=34	=34	=34	=34	=34	=34	.
2r	.	2G/	.	2d\]	.	1r	.	2g/]	.	.
2D\	O	4d\	sa	2A/	sa	.	.	2f/	sa	><CON_5v_doub
.	.	4D/	O	.	.	.	.	.	.	.
=35	=35	=35	=35	=35	=35	=35	=35	=35	=35	.
4C/	pian-	4E-/	pian-	4r	.	4r	.	1r	.	.
4BB-/	ta	4D/	ta	4f\	O	4d\	O	.	.	.
4C/	in-	4G/	in-	4e\	pian-	4c\	pian-	.	.	.
4D\	si-	4F/	si-	4d\	ta	4B-\	ta	.	.	.
=36	=36	=36	=36	=36	=36	=36	=36	=36	=36	.
4.E-\	dio-	2.G/	dio-	4c\	in-	4c\	in-	1r	.	.
.	.	.	.	4B-\	si-	4d\	si-	.	.	.
8D\	.	.	.	.	.	.	.	.	.	.
2C/	.	.	.	2c\	dio-	2e-\	dio-	.	.	.
.	.	4A/	.	.	.	.	.	.	.	.
=37	=37	=37	=37	=37	=37	=37	=37	=37	=37	.
1BB-/	sain	2B-\	.	2F/	sa	2d\	sa	2f/	in	.
.	.	2F/	sa	4r	.	4r	.	2b-\	cui	.
.	.	.	.	4F/	in	4f\	in	.	.	.
=38	=38	=38	=38	=38	=38	=38	=38	=38	=38	.
4C/	cui	2r	.	4c\	cui	4e\	cui	4a/	si	.
4AA/	si	.	.	4c\	si	4e\	si	[4cc\	ve-	.
2GG/	ve-	2G/	in	2d\	ve-	4.g\	ve-	8cc/L]	.	.
.	.	.	.	.	.	.	.	16b-/L	.	.
.	.	.	.	.	.	.	.	16a/JJ	.	.
.	.	.	.	.	.	.	.	4b-\	.	.
.	.	.	.	.	.	8f\	.	.	.	.
=39	=39	=39	=39	=39	=39	=39	=39	=39	=39	.
1C/	de	4G/	cui	2c\	de	1e\	.	1cc\	de	>
.	.	4E/	si	.	.	.	.	.	.	<CON_4v_doub
.	.	2G/	ve-	[2c\	Con	.	.	.	.	.
=40	=40	=40	=40	=40	=40	=40	=40	=40	=40	.
1r	.	2C/	de	4c\]	.	4e\	de	2r	.	.
.	.	.	.	4B-\	fio-	2g\	Con	.	.	.
.	.	2r	.	2A/	ri-	.	.	[2cc\	Con	.
.	.	.	.	.	.	4f\	fio-	.	.	.
=41	=41	=41	=41	=41	=41	=41	=41	=41	=41	.
1r	.	2r	.	4G/	ta	4e\	ri-	4cc\]	.	.
.	.	.	.	4G/	bel-	2d\	ta	4b-\	fio-	.
.	.	4r	.	2F/	lez-	.	.	2a/	ri-	.
.	.	[4F/	Con	.	.	4c\	bel-	.	.	.
=42	=42	=42	=42	=42	=42	=42	=42	=42	=42	.
2r	.	4F/]	.	2c\	za	[1f\	lez-	4a/	ta	.
.	.	4G/	fio-	.	.	.	.	4b-\	bel-	.
4F\	Con	2A/	ri-	4A/	Con	.	.	4cc\	lez-	.
4G\	fio-	.	.	4B-\	fio-	.	.	4cc\	zaa-	.
=43	=43	=43	=43	=43	=43	=43	=43	=43	=43	.
2A\	ri-	4.F/	ta	2c\	ri-	2f\]	.	1a/	ri-	.
.	.	8G/	bel-	.	.	.	.	.	.	.
4.AA/	ta	4A/	lez-	4c\	ta	2e\	za	.	.	.
.	.	8G/L	.	[4c\	bel-	.	.	.	.	.
8BB-/	bel-	8F/J	.	.	.	.	.	.	.	.
=44	=44	=44	=44	=44	=44	=44	=44	=44	=44	.
4C/	lez-	4E/	.	4c\]	.	4r	.	1g/	da	.
[4GG/	zaa-	[4G/	zaa-	2B-\	lez-	[4d\	a-	.	.	.
8GG/L]	.	8G/L]	.	.	.	8d\L]	.	.	.	.
8GG/J	ri-	8G/J	ri-	.	.	8d\J	ri-	.	.	.
4GG/	da	4G/	da	4B-\	zaa-	4d\	da	.	.	.
=45	=45	=45	=45	=45	=45	=45	=45	=45	=45	.
1D\	fe-	4F#/	fe-	4A/	ri-	1d\	fe-	4a/	fe-	.
.	.	4G/	.	4B-\	da	.	.	2g/	.	.
.	.	2A/	.	2A/	fe-	.	.	.	.	.
.	.	.	.	.	.	.	.	4f#/	.	.
=46	=46	=46	=46	=46	=46	=46	=46	=46	=46	.
1GG/	de	1G/	de	1Bn\	de	1d\	de	2g/	de	>
.	.	.	.	.	.	.	.	2g/	O	<CON_4v_doub
=47	=47	=47	=47	=47	=47	=47	=47	=47	=47	.
1r	.	4r	.	2c\	O	1r	.	4g/	pian-	.
.	.	4A/	O	.	.	.	.	4f/	ta	.
.	.	4G/	pian-	4B-\	pian-	.	.	4g/	in-	.
.	.	4F/	ta	4A/	ta	.	.	4cc\	si-	.
=48	=48	=48	=48	=48	=48	=48	=48	=48	=48	.
1r	.	4G/	in-	4d\	in-	1r	.	4b-\	dio-	.
.	.	4A/	si-	4c\	si-	.	.	4a/	.	.
.	.	4.B-\	dio-	[2d\	dio-	.	.	[2g/	.	.
.	.	8A/	.	.	.	.	.	.	.	.
=49	=49	=49	=49	=49	=49	=49	=49	=49	=49	.
2r	.	2G/	.	2d\]	.	1r	.	2g/]	.	.
2D\	O	4d\	sa	2A/	sa	.	.	2f/	sa	.
.	.	4D/	O	.	.	.	.	.	.	.
=50	=50	=50	=50	=50	=50	=50	=50	=50	=50	.
4C/	pian-	4E-/	pian-	4r	.	4r	.	1r	.	.
4BB-/	ta	4D/	ta	4f\	O	4d\	O	.	.	.
4C/	in-	4G/	in-	4e\	pian-	4c\	pian-	.	.	.
4D\	si-	4F/	si-	4d\	ta	4B-\	ta	.	.	.
=51	=51	=51	=51	=51	=51	=51	=51	=51	=51	.
4.E-\	dio-	2.G/	dio-	4c\	in-	4c\	in-	1r	.	.
.	.	.	.	4B-\	si-	4d\	si-	.	.	.
8D\	.	.	.	.	.	.	.	.	.	.
2C/	.	.	.	2c\	dio-	2e-\	dio-	.	.	.
.	.	4A/	.	.	.	.	.	.	.	.
=52	=52	=52	=52	=52	=52	=52	=52	=52	=52	.
1BB-/	sain	2B-\	.	2F/	sa	2d\	sa	2f/	in	.
.	.	2F/	sa	4r	.	4r	.	2b-\	cui	.
.	.	.	.	4F/	in	4f\	in	.	.	.
=53	=53	=53	=53	=53	=53	=53	=53	=53	=53	.
4C/	cui	2r	.	4c\	cui	4e\	cui	4a/	si	.
4AA/	si	.	.	4c\	si	4e\	si	[4cc\	ve-	.
2GG/	ve-	2G/	in	2d\	ve-	4.g\	ve-	8cc/L]	.	.
.	.	.	.	.	.	.	.	16b-/L	.	.
.	.	.	.	.	.	.	.	16a/JJ	.	.
.	.	.	.	.	.	.	.	4b-\	.	.
.	.	.	.	.	.	8f\	.	.	.	.
=54	=54	=54	=54	=54	=54	=54	=54	=54	=54	.
1C/	de	4G/	cui	2c\	de	1e\	.	1cc\	de	>
.	.	4E/	si	.	.	.	.	.	.	.
.	.	2G/	ve-	[2c\	Con	.	.	.	.	<CON_5v
=55	=55	=55	=55	=55	=55	=55	=55	=55	=55	.
1r	.	2C/	de	4c\]	.	4e\	de	2r	.	.
.	.	.	.	4B-\	fio-	2g\	Con	.	.	.
.	.	2r	.	2A/	ri-	.	.	[2cc\	Con	.
.	.	.	.	.	.	4f\	fio-	.	.	.
=56	=56	=56	=56	=56	=56	=56	=56	=56	=56	.
1r	.	2r	.	4G/	ta	4e\	ri-	4cc\]	.	.
.	.	.	.	4G/	bel-	2d\	ta	4b-\	fio-	.
.	.	4r	.	2F/	lez-	.	.	2a/	ri-	.
.	.	[4F/	Con	.	.	4c\	bel-	.	.	.
=57	=57	=57	=57	=57	=57	=57	=57	=57	=57	.
2r	.	4F/]	.	2c\	za	[1f\	lez-	4a/	ta	.
.	.	4G/	fio-	.	.	.	.	4b-\	bel-	.
4F\	Con	2A/	ri-	4A/	Con	.	.	4cc\	lez-	.
4G\	fio-	.	.	4B-\	fio-	.	.	4cc\	zaa-	.
=58	=58	=58	=58	=58	=58	=58	=58	=58	=58	.
2A\	ri-	4.F/	ta	2c\	ri-	2f\]	.	1a/	ri-	.
.	.	8G/	bel-	.	.	.	.	.	.	.
4.AA/	ta	4A/	lez-	4c\	ta	2e\	za	.	.	.
.	.	8G/L	.	[4c\	bel-	.	.	.	.	.
8BB-/	bel-	8F/J	.	.	.	.	.	.	.	.
=59	=59	=59	=59	=59	=59	=59	=59	=59	=59	.
4C/	lez-	4E/	.	4c\]	.	4r	.	1g/	da	.
[4GG/	zaa-	[4G/	zaa-	2d\	lez-	[4d\	a-	.	.	.
8GG/L]	.	8G/L]	.	.	.	8d\L]	.	.	.	.
8GG/J	ri-	8G/J	ri-	.	.	8d\J	ri-	.	.	.
4GG/	da	4G/	da	4B-\	zaa-	4d\	da	.	.	.
=60	=60	=60	=60	=60	=60	=60	=60	=60	=60	.
1D\	fe-	4F#/	fe-	4A/	ri-	1d\	fe-	4a/	fe-	.
.	.	4G/	.	4B-\	da	.	.	2g/	.	.
.	.	2A/	.	2A/	fe-	.	.	.	.	.
.	.	.	.	.	.	.	.	4f#/	.	.
=61	=61	=61	=61	=61	=61	=61	=61	=61	=61	.
1GG/	de.	1G/	de.	1Bn\	de.	1d\	de.	1g/	de.	>
==	==	==	==	==	==	==	==	==	==	==
*-	*-	*-	*-	*-	*-	*-	*-	*-	*-	*-